CS RT 90
 LT 90
 RT 90
 LT 90
 RT 90
 FD 5
 LT 90
 FD 5
 LT 90
 FD 5
 RT 90
 FD 5
 RT 90
 LT 90
 FD 5
 RT 90
 FD 5
 RT 90
 FD 5
 LT 90
 FD 5
 LT 90
 FD 5
 RT 90
 FD 5
 RT 90
 FD 5
 LT 90
 RT 90
 FD 5
 RT 90
 FD 5
 LT 90
 FD 5
 LT 90
 FD 5
 RT 90
 LT 90
 FD 5
 LT 90
 RT 90
 LT 90
 FD 5
 RT 90
 FD 5
 RT 90
 FD 5
 LT 90
 FD 5
 LT 90
 RT 90
 FD 5
 LT 90
 FD 5
 LT 90
 FD 5
 RT 90
 FD 5
 RT 90
 FD 5
 LT 90
 FD 5
 LT 90
 FD 5
 RT 90
 LT 90
 FD 5
 LT 90
 FD 5
 RT 90
 FD 5
 RT 90
 FD 5
 LT 90
 RT 90
 FD 5
 RT 90
 LT 90
 FD 5
 RT 90
 FD 5
 RT 90
 FD 5
 LT 90
 FD 5
 LT 90
 RT 90
 FD 5
 LT 90
 FD 5
 LT 90
 FD 5
 RT 90
 FD 5
 RT 90
 FD 5
 LT 90
 FD 5
 LT 90
 FD 5
 RT 90
 LT 90
 FD 5
 LT 90
 FD 5
 RT 90
 FD 5
 RT 90
 FD 5
 LT 90
 RT 90
 LT 90
 FD 5
 LT 90
 RT 90
 FD 5
 LT 90
 FD 5
 LT 90
 FD 5
 RT 90
 FD 5
 RT 90
 LT 90
 FD 5
 RT 90
 FD 5
 RT 90
 FD 5
 LT 90
 FD 5
 LT 90
 FD 5
 RT 90
 FD 5
 RT 90
 FD 5
 LT 90
 RT 90
 FD 5
 RT 90
 FD 5
 LT 90
 FD 5
 LT 90
 FD 5
 RT 90
 LT 90
 RT 90
 FD 5
 RT 90
 LT 90
 RT 90
 LT 90
 FD 5
 RT 90
 FD 5
 RT 90
 FD 5
 LT 90
 FD 5
 LT 90
 RT 90
 FD 5
 LT 90
 FD 5
 LT 90
 FD 5
 RT 90
 FD 5
 RT 90
 FD 5
 LT 90
 FD 5
 LT 90
 FD 5
 RT 90
 LT 90
 FD 5
 LT 90
 FD 5
 RT 90
 FD 5
 RT 90
 FD 5
 LT 90
 RT 90
 FD 5
 RT 90
 LT 90
 RT 90
 FD 5
 LT 90
 FD 5
 LT 90
 FD 5
 RT 90
 FD 5
 RT 90
 LT 90
 FD 5
 RT 90
 FD 5
 RT 90
 FD 5
 LT 90
 FD 5
 LT 90
 FD 5
 RT 90
 FD 5
 RT 90
 FD 5
 LT 90
 RT 90
 FD 5
 RT 90
 FD 5
 LT 90
 FD 5
 LT 90
 FD 5
 RT 90
 LT 90
 FD 5
 LT 90
 RT 90
 FD 5
 LT 90
 FD 5
 LT 90
 FD 5
 RT 90
 FD 5
 RT 90
 LT 90
 FD 5
 RT 90
 FD 5
 RT 90
 FD 5
 LT 90
 FD 5
 LT 90
 FD 5
 RT 90
 FD 5
 RT 90
 FD 5
 LT 90
 RT 90
 FD 5
 RT 90
 FD 5
 LT 90
 FD 5
 LT 90
 FD 5
 RT 90
 LT 90
 RT 90
 FD 5
 RT 90
 LT 90
 FD 5
 RT 90
 FD 5
 RT 90
 FD 5
 LT 90
 FD 5
 LT 90
 RT 90
 FD 5
 LT 90
 FD 5
 LT 90
 FD 5
 RT 90
 FD 5
 RT 90
 FD 5
 LT 90
 FD 5
 LT 90
 FD 5
 RT 90
 LT 90
 FD 5
 LT 90
 FD 5
 RT 90
 FD 5
 RT 90
 FD 5
 LT 90
 RT 90
 LT 90
 FD 5
 LT 90
 RT 90
 LT 90
 FD 5
 RT 90
 FD 5
 RT 90
 FD 5
 LT 90
 FD 5
 LT 90
 RT 90
 FD 5
 LT 90
 FD 5
 LT 90
 FD 5
 RT 90
 FD 5
 RT 90
 FD 5
 LT 90
 FD 5
 LT 90
 FD 5
 RT 90
 LT 90
 FD 5
 LT 90
 FD 5
 RT 90
 FD 5
 RT 90
 FD 5
 LT 90
 RT 90
 FD 5
 RT 90
 LT 90
 RT 90
 FD 5
 LT 90
 FD 5
 LT 90
 FD 5
 RT 90
 FD 5
 RT 90
 LT 90
 FD 5
 RT 90
 FD 5
 RT 90
 FD 5
 LT 90
 FD 5
 LT 90
 FD 5
 RT 90
 FD 5
 RT 90
 FD 5
 LT 90
 RT 90
 FD 5
 RT 90
 FD 5
 LT 90
 FD 5
 LT 90
 FD 5
 RT 90
 LT 90
 FD 5
 LT 90
 RT 90
 FD 5
 LT 90
 FD 5
 LT 90
 FD 5
 RT 90
 FD 5
 RT 90
 LT 90
 FD 5
 RT 90
 FD 5
 RT 90
 FD 5
 LT 90
 FD 5
 LT 90
 FD 5
 RT 90
 FD 5
 RT 90
 FD 5
 LT 90
 RT 90
 FD 5
 RT 90
 FD 5
 LT 90
 FD 5
 LT 90
 FD 5
 RT 90
 LT 90
 RT 90
 FD 5
 RT 90
 LT 90
 FD 5
 RT 90
 FD 5
 RT 90
 FD 5
 LT 90
 FD 5
 LT 90
 RT 90
 FD 5
 LT 90
 FD 5
 LT 90
 FD 5
 RT 90
 FD 5
 RT 90
 FD 5
 LT 90
 FD 5
 LT 90
 FD 5
 RT 90
 LT 90
 FD 5
 LT 90
 FD 5
 RT 90
 FD 5
 RT 90
 FD 5
 LT 90
 RT 90
 LT 90
 RT 90
 FD 5
 RT 90
 LT 90
 RT 90
 FD 5
 LT 90
 FD 5
 LT 90
 FD 5
 RT 90
 FD 5
 RT 90
 LT 90
 FD 5
 RT 90
 FD 5
 RT 90
 FD 5
 LT 90
 FD 5
 LT 90
 FD 5
 RT 90
 FD 5
 RT 90
 FD 5
 LT 90
 RT 90
 FD 5
 RT 90
 FD 5
 LT 90
 FD 5
 LT 90
 FD 5
 RT 90
 LT 90
 FD 5
 LT 90
 RT 90
 LT 90
 FD 5
 RT 90
 FD 5
 RT 90
 FD 5
 LT 90
 FD 5
 LT 90
 RT 90
 FD 5
 LT 90
 FD 5
 LT 90
 FD 5
 RT 90
 FD 5
 RT 90
 FD 5
 LT 90
 FD 5
 LT 90
 FD 5
 RT 90
 LT 90
 FD 5
 LT 90
 FD 5
 RT 90
 FD 5
 RT 90
 FD 5
 LT 90
 RT 90
 FD 5
 RT 90
 LT 90
 FD 5
 RT 90
 FD 5
 RT 90
 FD 5
 LT 90
 FD 5
 LT 90
 RT 90
 FD 5
 LT 90
 FD 5
 LT 90
 FD 5
 RT 90
 FD 5
 RT 90
 FD 5
 LT 90
 FD 5
 LT 90
 FD 5
 RT 90
 LT 90
 FD 5
 LT 90
 FD 5
 RT 90
 FD 5
 RT 90
 FD 5
 LT 90
 RT 90
 LT 90
 FD 5
 LT 90
 RT 90
 FD 5
 LT 90
 FD 5
 LT 90
 FD 5
 RT 90
 FD 5
 RT 90
 LT 90
 FD 5
 RT 90
 FD 5
 RT 90
 FD 5
 LT 90
 FD 5
 LT 90
 FD 5
 RT 90
 FD 5
 RT 90
 FD 5
 LT 90
 RT 90
 FD 5
 RT 90
 FD 5
 LT 90
 FD 5
 LT 90
 FD 5
 RT 90
 LT 90
 RT 90
 LT 90
 FD 5
 LT 90
 RT 90
 LT 90
 RT 90
 LT 90
 FD 5
 RT 90
 FD 5
 RT 90
 FD 5
 LT 90
 FD 5
 LT 90
 RT 90
 FD 5
 LT 90
 FD 5
 LT 90
 FD 5
 RT 90
 FD 5
 RT 90
 FD 5
 LT 90
 FD 5
 LT 90
 FD 5
 RT 90
 LT 90
 FD 5
 LT 90
 FD 5
 RT 90
 FD 5
 RT 90
 FD 5
 LT 90
 RT 90
 FD 5
 RT 90
 LT 90
 RT 90
 FD 5
 LT 90
 FD 5
 LT 90
 FD 5
 RT 90
 FD 5
 RT 90
 LT 90
 FD 5
 RT 90
 FD 5
 RT 90
 FD 5
 LT 90
 FD 5
 LT 90
 FD 5
 RT 90
 FD 5
 RT 90
 FD 5
 LT 90
 RT 90
 FD 5
 RT 90
 FD 5
 LT 90
 FD 5
 LT 90
 FD 5
 RT 90
 LT 90
 FD 5
 LT 90
 RT 90
 FD 5
 LT 90
 FD 5
 LT 90
 FD 5
 RT 90
 FD 5
 RT 90
 LT 90
 FD 5
 RT 90
 FD 5
 RT 90
 FD 5
 LT 90
 FD 5
 LT 90
 FD 5
 RT 90
 FD 5
 RT 90
 FD 5
 LT 90
 RT 90
 FD 5
 RT 90
 FD 5
 LT 90
 FD 5
 LT 90
 FD 5
 RT 90
 LT 90
 RT 90
 FD 5
 RT 90
 LT 90
 FD 5
 RT 90
 FD 5
 RT 90
 FD 5
 LT 90
 FD 5
 LT 90
 RT 90
 FD 5
 LT 90
 FD 5
 LT 90
 FD 5
 RT 90
 FD 5
 RT 90
 FD 5
 LT 90
 FD 5
 LT 90
 FD 5
 RT 90
 LT 90
 FD 5
 LT 90
 FD 5
 RT 90
 FD 5
 RT 90
 FD 5
 LT 90
 RT 90
 LT 90
 FD 5
 LT 90
 RT 90
 LT 90
 RT 90
 FD 5
 LT 90
 FD 5
 LT 90
 FD 5
 RT 90
 FD 5
 RT 90
 LT 90
 FD 5
 RT 90
 FD 5
 RT 90
 FD 5
 LT 90
 FD 5
 LT 90
 FD 5
 RT 90
 FD 5
 RT 90
 FD 5
 LT 90
 RT 90
 FD 5
 RT 90
 FD 5
 LT 90
 FD 5
 LT 90
 FD 5
 RT 90
 LT 90
 FD 5
 LT 90
 RT 90
 LT 90
 FD 5
 RT 90
 FD 5
 RT 90
 FD 5
 LT 90
 FD 5
 LT 90
 RT 90
 FD 5
 LT 90
 FD 5
 LT 90
 FD 5
 RT 90
 FD 5
 RT 90
 FD 5
 LT 90
 FD 5
 LT 90
 FD 5
 RT 90
 LT 90
 FD 5
 LT 90
 FD 5
 RT 90
 FD 5
 RT 90
 FD 5
 LT 90
 RT 90
 FD 5
 RT 90
 LT 90
 FD 5
 RT 90
 FD 5
 RT 90
 FD 5
 LT 90
 FD 5
 LT 90
 RT 90
 FD 5
 LT 90
 FD 5
 LT 90
 FD 5
 RT 90
 FD 5
 RT 90
 FD 5
 LT 90
 FD 5
 LT 90
 FD 5
 RT 90
 LT 90
 FD 5
 LT 90
 FD 5
 RT 90
 FD 5
 RT 90
 FD 5
 LT 90
 RT 90
 LT 90
 FD 5
 LT 90
 RT 90
 FD 5
 LT 90
 FD 5
 LT 90
 FD 5
 RT 90
 FD 5
 RT 90
 LT 90
 FD 5
 RT 90
 FD 5
 RT 90
 FD 5
 LT 90
 FD 5
 LT 90
 FD 5
 RT 90
 FD 5
 RT 90
 FD 5
 LT 90
 RT 90
 FD 5
 RT 90
 FD 5
 LT 90
 FD 5
 LT 90
 FD 5
 RT 90
 LT 90
 RT 90
 FD 5
 RT 90
 LT 90
 RT 90
 FD 5
 LT 90
 FD 5
 LT 90
 FD 5
 RT 90
 FD 5
 RT 90
 LT 90
 FD 5
 RT 90
 FD 5
 RT 90
 FD 5
 LT 90
 FD 5
 LT 90
 FD 5
 RT 90
 FD 5
 RT 90
 FD 5
 LT 90
 RT 90
 FD 5
 RT 90
 FD 5
 LT 90
 FD 5
 LT 90
 FD 5
 RT 90
 LT 90
 FD 5
 LT 90
 RT 90
 LT 90
 FD 5
 RT 90
 FD 5
 RT 90
 FD 5
 LT 90
 FD 5
 LT 90
 RT 90
 FD 5
 LT 90
 FD 5
 LT 90
 FD 5
 RT 90
 FD 5
 RT 90
 FD 5
 LT 90
 FD 5
 LT 90
 FD 5
 RT 90
 LT 90
 FD 5
 LT 90
 FD 5
 RT 90
 FD 5
 RT 90
 FD 5
 LT 90
 RT 90
 FD 5
 RT 90
 LT 90
 FD 5
 RT 90
 FD 5
 RT 90
 FD 5
 LT 90
 FD 5
 LT 90
 RT 90
 FD 5
 LT 90
 FD 5
 LT 90
 FD 5
 RT 90
 FD 5
 RT 90
 FD 5
 LT 90
 FD 5
 LT 90
 FD 5
 RT 90
 LT 90
 FD 5
 LT 90
 FD 5
 RT 90
 FD 5
 RT 90
 FD 5
 LT 90
 RT 90
 LT 90
 FD 5
 LT 90
 RT 90
 FD 5
 LT 90
 FD 5
 LT 90
 FD 5
 RT 90
 FD 5
 RT 90
 LT 90
 FD 5
 RT 90
 FD 5
 RT 90
 FD 5
 LT 90
 FD 5
 LT 90
 FD 5
 RT 90
 FD 5
 RT 90
 FD 5
 LT 90
 RT 90
 FD 5
 RT 90
 FD 5
 LT 90
 FD 5
 LT 90
 FD 5
 RT 90
 LT 90
 RT 90
 LT 90
 FD 5
 LT 90
 RT 90
 LT 90
 FD 5
 RT 90
 FD 5
 RT 90
 FD 5
 LT 90
 FD 5
 LT 90
 RT 90
 FD 5
 LT 90
 FD 5
 LT 90
 FD 5
 RT 90
 FD 5
 RT 90
 FD 5
 LT 90
 FD 5
 LT 90
 FD 5
 RT 90
 LT 90
 FD 5
 LT 90
 FD 5
 RT 90
 FD 5
 RT 90
 FD 5
 LT 90
 RT 90
 FD 5
 RT 90
 LT 90
 RT 90
 FD 5
 LT 90
 FD 5
 LT 90
 FD 5
 RT 90
 FD 5
 RT 90
 LT 90
 FD 5
 RT 90
 FD 5
 RT 90
 FD 5
 LT 90
 FD 5
 LT 90
 FD 5
 RT 90
 FD 5
 RT 90
 FD 5
 LT 90
 RT 90
 FD 5
 RT 90
 FD 5
 LT 90
 FD 5
 LT 90
 FD 5
 RT 90
 LT 90
 FD 5
 LT 90
 RT 90
 FD 5
 LT 90
 FD 5
 LT 90
 FD 5
 RT 90
 FD 5
 RT 90
 LT 90
 FD 5
 RT 90
 FD 5
 RT 90
 FD 5
 LT 90
 FD 5
 LT 90
 FD 5
 RT 90
 FD 5
 RT 90
 FD 5
 LT 90
 RT 90
 FD 5
 RT 90
 FD 5
 LT 90
 FD 5
 LT 90
 FD 5
 RT 90
 LT 90
 RT 90
 FD 5
 RT 90
 LT 90
 FD 5
 RT 90
 FD 5
 RT 90
 FD 5
 LT 90
 FD 5
 LT 90
 RT 90
 FD 5
 LT 90
 FD 5
 LT 90
 FD 5
 RT 90
 FD 5
 RT 90
 FD 5
 LT 90
 FD 5
 LT 90
 FD 5
 RT 90
 LT 90
 FD 5
 LT 90
 FD 5
 RT 90
 FD 5
 RT 90
 FD 5
 LT 90
 RT 90
 LT 90
 RT 90
 FD 5
 RT 90
 LT 90
 RT 90
 LT 90
 FD 5
 RT 90
 FD 5
 RT 90
 FD 5
 LT 90
 FD 5
 LT 90
 RT 90
 FD 5
 LT 90
 FD 5
 LT 90
 FD 5
 RT 90
 FD 5
 RT 90
 FD 5
 LT 90
 FD 5
 LT 90
 FD 5
 RT 90
 LT 90
 FD 5
 LT 90
 FD 5
 RT 90
 FD 5
 RT 90
 FD 5
 LT 90
 RT 90
 FD 5
 RT 90
 LT 90
 RT 90
 FD 5
 LT 90
 FD 5
 LT 90
 FD 5
 RT 90
 FD 5
 RT 90
 LT 90
 FD 5
 RT 90
 FD 5
 RT 90
 FD 5
 LT 90
 FD 5
 LT 90
 FD 5
 RT 90
 FD 5
 RT 90
 FD 5
 LT 90
 RT 90
 FD 5
 RT 90
 FD 5
 LT 90
 FD 5
 LT 90
 FD 5
 RT 90
 LT 90
 FD 5
 LT 90
 RT 90
 FD 5
 LT 90
 FD 5
 LT 90
 FD 5
 RT 90
 FD 5
 RT 90
 LT 90
 FD 5
 RT 90
 FD 5
 RT 90
 FD 5
 LT 90
 FD 5
 LT 90
 FD 5
 RT 90
 FD 5
 RT 90
 FD 5
 LT 90
 RT 90
 FD 5
 RT 90
 FD 5
 LT 90
 FD 5
 LT 90
 FD 5
 RT 90
 LT 90
 RT 90
 FD 5
 RT 90
 LT 90
 FD 5
 RT 90
 FD 5
 RT 90
 FD 5
 LT 90
 FD 5
 LT 90
 RT 90
 FD 5
 LT 90
 FD 5
 LT 90
 FD 5
 RT 90
 FD 5
 RT 90
 FD 5
 LT 90
 FD 5
 LT 90
 FD 5
 RT 90
 LT 90
 FD 5
 LT 90
 FD 5
 RT 90
 FD 5
 RT 90
 FD 5
 LT 90
 RT 90
 LT 90
 FD 5
 LT 90
 RT 90
 LT 90
 RT 90
 FD 5
 LT 90
 FD 5
 LT 90
 FD 5
 RT 90
 FD 5
 RT 90
 LT 90
 FD 5
 RT 90
 FD 5
 RT 90
 FD 5
 LT 90
 FD 5
 LT 90
 FD 5
 RT 90
 FD 5
 RT 90
 FD 5
 LT 90
 RT 90
 FD 5
 RT 90
 FD 5
 LT 90
 FD 5
 LT 90
 FD 5
 RT 90
 LT 90
 FD 5
 LT 90
 RT 90
 LT 90
 FD 5
 RT 90
 FD 5
 RT 90
 FD 5
 LT 90
 FD 5
 LT 90
 RT 90
 FD 5
 LT 90
 FD 5
 LT 90
 FD 5
 RT 90
 FD 5
 RT 90
 FD 5
 LT 90
 FD 5
 LT 90
 FD 5
 RT 90
 LT 90
 FD 5
 LT 90
 FD 5
 RT 90
 FD 5
 RT 90
 FD 5
 LT 90
 RT 90
 FD 5
 RT 90
 LT 90
 FD 5
 RT 90
 FD 5
 RT 90
 FD 5
 LT 90
 FD 5
 LT 90
 RT 90
 FD 5
 LT 90
 FD 5
 LT 90
 FD 5
 RT 90
 FD 5
 RT 90
 FD 5
 LT 90
 FD 5
 LT 90
 FD 5
 RT 90
 LT 90
 FD 5
 LT 90
 FD 5
 RT 90
 FD 5
 RT 90
 FD 5
 LT 90
 RT 90
 LT 90
 FD 5
 LT 90
 RT 90
 FD 5
 LT 90
 FD 5
 LT 90
 FD 5
 RT 90
 FD 5
 RT 90
 LT 90
 FD 5
 RT 90
 FD 5
 RT 90
 FD 5
 LT 90
 FD 5
 LT 90
 FD 5
 RT 90
 FD 5
 RT 90
 FD 5
 LT 90
 RT 90
 FD 5
 RT 90
 FD 5
 LT 90
 FD 5
 LT 90
 FD 5
 RT 90
 LT 90
 RT 90
 FD 5
 RT 90
 LT 90
 RT 90
 FD 5
 LT 90
 FD 5
 LT 90
 FD 5
 RT 90
 FD 5
 RT 90
 LT 90
 FD 5
 RT 90
 FD 5
 RT 90
 FD 5
 LT 90
 FD 5
 LT 90
 FD 5
 RT 90
 FD 5
 RT 90
 FD 5
 LT 90
 RT 90
 FD 5
 RT 90
 FD 5
 LT 90
 FD 5
 LT 90
 FD 5
 RT 90
 LT 90
 FD 5
 LT 90
 RT 90
 LT 90
 FD 5
 RT 90
 FD 5
 RT 90
 FD 5
 LT 90
 FD 5
 LT 90
 RT 90
 FD 5
 LT 90
 FD 5
 LT 90
 FD 5
 RT 90
 FD 5
 RT 90
 FD 5
 LT 90
 FD 5
 LT 90
 FD 5
 RT 90
 LT 90
 FD 5
 LT 90
 FD 5
 RT 90
 FD 5
 RT 90
 FD 5
 LT 90
 RT 90
 FD 5
 RT 90
 LT 90
 FD 5
 RT 90
 FD 5
 RT 90
 FD 5
 LT 90
 FD 5
 LT 90
 RT 90
 FD 5
 LT 90
 FD 5
 LT 90
 FD 5
 RT 90
 FD 5
 RT 90
 FD 5
 LT 90
 FD 5
 LT 90
 FD 5
 RT 90
 LT 90
 FD 5
 LT 90
 FD 5
 RT 90
 FD 5
 RT 90
 FD 5
 LT 90
 RT 90
 LT 90
 FD 5
 LT 90
 RT 90
 FD 5
 LT 90
 FD 5
 LT 90
 FD 5
 RT 90
 FD 5
 RT 90
 LT 90
 FD 5
 RT 90
 FD 5
 RT 90
 FD 5
 LT 90
 FD 5
 LT 90
 FD 5
 RT 90
 FD 5
 RT 90
 FD 5
 LT 90
 RT 90
 FD 5
 RT 90
 FD 5
 LT 90
 FD 5
 LT 90
 FD 5
 RT 90
 LT 90
 RT 90
 LT 90
 FD 5
 LT 90
 RT 90
 LT 90
 FD 5
 RT 90
 FD 5
 RT 90
 FD 5
 LT 90
 FD 5
 LT 90
 RT 90
 FD 5
 LT 90
 FD 5
 LT 90
 FD 5
 RT 90
 FD 5
 RT 90
 FD 5
 LT 90
 FD 5
 LT 90
 FD 5
 RT 90
 LT 90
 FD 5
 LT 90
 FD 5
 RT 90
 FD 5
 RT 90
 FD 5
 LT 90
 RT 90
 FD 5
 RT 90
 LT 90
 RT 90
 FD 5
 LT 90
 FD 5
 LT 90
 FD 5
 RT 90
 FD 5
 RT 90
 LT 90
 FD 5
 RT 90
 FD 5
 RT 90
 FD 5
 LT 90
 FD 5
 LT 90
 FD 5
 RT 90
 FD 5
 RT 90
 FD 5
 LT 90
 RT 90
 FD 5
 RT 90
 FD 5
 LT 90
 FD 5
 LT 90
 FD 5
 RT 90
 LT 90
 FD 5
 LT 90
 RT 90
 FD 5
 LT 90
 FD 5
 LT 90
 FD 5
 RT 90
 FD 5
 RT 90
 LT 90
 FD 5
 RT 90
 FD 5
 RT 90
 FD 5
 LT 90
 FD 5
 LT 90
 FD 5
 RT 90
 FD 5
 RT 90
 FD 5
 LT 90
 RT 90
 FD 5
 RT 90
 FD 5
 LT 90
 FD 5
 LT 90
 FD 5
 RT 90
 LT 90
 RT 90
 FD 5
 RT 90
 LT 90
 FD 5
 RT 90
 FD 5
 RT 90
 FD 5
 LT 90
 FD 5
 LT 90
 RT 90
 FD 5
 LT 90
 FD 5
 LT 90
 FD 5
 RT 90
 FD 5
 RT 90
 FD 5
 LT 90
 FD 5
 LT 90
 FD 5
 RT 90
 LT 90
 FD 5
 LT 90
 FD 5
 RT 90
 FD 5
 RT 90
 FD 5
 LT 90
 RT 90
 LT 90
 RT 90
 LT 90
 FD 5
 LT 90
 RT 90
 LT 90
 RT 90
 FD 5
 LT 90
 FD 5
 LT 90
 FD 5
 RT 90
 FD 5
 RT 90
 LT 90
 FD 5
 RT 90
 FD 5
 RT 90
 FD 5
 LT 90
 FD 5
 LT 90
 FD 5
 RT 90
 FD 5
 RT 90
 FD 5
 LT 90
 RT 90
 FD 5
 RT 90
 FD 5
 LT 90
 FD 5
 LT 90
 FD 5
 RT 90
 LT 90
 FD 5
 LT 90
 RT 90
 LT 90
 FD 5
 RT 90
 FD 5
 RT 90
 FD 5
 LT 90
 FD 5
 LT 90
 RT 90
 FD 5
 LT 90
 FD 5
 LT 90
 FD 5
 RT 90
 FD 5
 RT 90
 FD 5
 LT 90
 FD 5
 LT 90
 FD 5
 RT 90
 LT 90
 FD 5
 LT 90
 FD 5
 RT 90
 FD 5
 RT 90
 FD 5
 LT 90
 RT 90
 FD 5
 RT 90
 LT 90
 FD 5
 RT 90
 FD 5
 RT 90
 FD 5
 LT 90
 FD 5
 LT 90
 RT 90
 FD 5
 LT 90
 FD 5
 LT 90
 FD 5
 RT 90
 FD 5
 RT 90
 FD 5
 LT 90
 FD 5
 LT 90
 FD 5
 RT 90
 LT 90
 FD 5
 LT 90
 FD 5
 RT 90
 FD 5
 RT 90
 FD 5
 LT 90
 RT 90
 LT 90
 FD 5
 LT 90
 RT 90
 FD 5
 LT 90
 FD 5
 LT 90
 FD 5
 RT 90
 FD 5
 RT 90
 LT 90
 FD 5
 RT 90
 FD 5
 RT 90
 FD 5
 LT 90
 FD 5
 LT 90
 FD 5
 RT 90
 FD 5
 RT 90
 FD 5
 LT 90
 RT 90
 FD 5
 RT 90
 FD 5
 LT 90
 FD 5
 LT 90
 FD 5
 RT 90
 LT 90
 RT 90
 FD 5
 RT 90
 LT 90
 RT 90
 LT 90
 FD 5
 RT 90
 FD 5
 RT 90
 FD 5
 LT 90
 FD 5
 LT 90
 RT 90
 FD 5
 LT 90
 FD 5
 LT 90
 FD 5
 RT 90
 FD 5
 RT 90
 FD 5
 LT 90
 FD 5
 LT 90
 FD 5
 RT 90
 LT 90
 FD 5
 LT 90
 FD 5
 RT 90
 FD 5
 RT 90
 FD 5
 LT 90
 RT 90
 FD 5
 RT 90
 LT 90
 RT 90
 FD 5
 LT 90
 FD 5
 LT 90
 FD 5
 RT 90
 FD 5
 RT 90
 LT 90
 FD 5
 RT 90
 FD 5
 RT 90
 FD 5
 LT 90
 FD 5
 LT 90
 FD 5
 RT 90
 FD 5
 RT 90
 FD 5
 LT 90
 RT 90
 FD 5
 RT 90
 FD 5
 LT 90
 FD 5
 LT 90
 FD 5
 RT 90
 LT 90
 FD 5
 LT 90
 RT 90
 FD 5
 LT 90
 FD 5
 LT 90
 FD 5
 RT 90
 FD 5
 RT 90
 LT 90
 FD 5
 RT 90
 FD 5
 RT 90
 FD 5
 LT 90
 FD 5
 LT 90
 FD 5
 RT 90
 FD 5
 RT 90
 FD 5
 LT 90
 RT 90
 FD 5
 RT 90
 FD 5
 LT 90
 FD 5
 LT 90
 FD 5
 RT 90
 LT 90
 RT 90
 FD 5
 RT 90
 LT 90
 FD 5
 RT 90
 FD 5
 RT 90
 FD 5
 LT 90
 FD 5
 LT 90
 RT 90
 FD 5
 LT 90
 FD 5
 LT 90
 FD 5
 RT 90
 FD 5
 RT 90
 FD 5
 LT 90
 FD 5
 LT 90
 FD 5
 RT 90
 LT 90
 FD 5
 LT 90
 FD 5
 RT 90
 FD 5
 RT 90
 FD 5
 LT 90
 RT 90
 LT 90
 FD 5
 LT 90
 RT 90
 LT 90
 FD 5
 RT 90
 FD 5
 RT 90
 FD 5
 LT 90
 FD 5
 LT 90
 RT 90
 FD 5
 LT 90
 FD 5
 LT 90
 FD 5
 RT 90
 FD 5
 RT 90
 FD 5
 LT 90
 FD 5
 LT 90
 FD 5
 RT 90
 LT 90
 FD 5
 LT 90
 FD 5
 RT 90
 FD 5
 RT 90
 FD 5
 LT 90
 RT 90
 FD 5
 RT 90
 LT 90
 RT 90
 FD 5
 LT 90
 FD 5
 LT 90
 FD 5
 RT 90
 FD 5
 RT 90
 LT 90
 FD 5
 RT 90
 FD 5
 RT 90
 FD 5
 LT 90
 FD 5
 LT 90
 FD 5
 RT 90
 FD 5
 RT 90
 FD 5
 LT 90
 RT 90
 FD 5
 RT 90
 FD 5
 LT 90
 FD 5
 LT 90
 FD 5
 RT 90
 LT 90
 FD 5
 LT 90
 RT 90
 FD 5
 LT 90
 FD 5
 LT 90
 FD 5
 RT 90
 FD 5
 RT 90
 LT 90
 FD 5
 RT 90
 FD 5
 RT 90
 FD 5
 LT 90
 FD 5
 LT 90
 FD 5
 RT 90
 FD 5
 RT 90
 FD 5
 LT 90
 RT 90
 FD 5
 RT 90
 FD 5
 LT 90
 FD 5
 LT 90
 FD 5
 RT 90
 LT 90
 RT 90
 FD 5
 RT 90
 LT 90
 FD 5
 RT 90
 FD 5
 RT 90
 FD 5
 LT 90
 FD 5
 LT 90
 RT 90
 FD 5
 LT 90
 FD 5
 LT 90
 FD 5
 RT 90
 FD 5
 RT 90
 FD 5
 LT 90
 FD 5
 LT 90
 FD 5
 RT 90
 LT 90
 FD 5
 LT 90
 FD 5
 RT 90
 FD 5
 RT 90
 FD 5
 LT 90
 RT 90
 LT 90
 RT 90
 FD 5
 RT 90
 LT 90
 RT 90
 FD 5
 LT 90
 FD 5
 LT 90
 FD 5
 RT 90
 FD 5
 RT 90
 LT 90
 FD 5
 RT 90
 FD 5
 RT 90
 FD 5
 LT 90
 FD 5
 LT 90
 FD 5
 RT 90
 FD 5
 RT 90
 FD 5
 LT 90
 RT 90
 FD 5
 RT 90
 FD 5
 LT 90
 FD 5
 LT 90
 FD 5
 RT 90
 LT 90
 FD 5
 LT 90
 RT 90
 LT 90
 FD 5
 RT 90
 FD 5
 RT 90
 FD 5
 LT 90
 FD 5
 LT 90
 RT 90
 FD 5
 LT 90
 FD 5
 LT 90
 FD 5
 RT 90
 FD 5
 RT 90
 FD 5
 LT 90
 FD 5
 LT 90
 FD 5
 RT 90
 LT 90
 FD 5
 LT 90
 FD 5
 RT 90
 FD 5
 RT 90
 FD 5
 LT 90
 RT 90
 FD 5
 RT 90
 LT 90
 FD 5
 RT 90
 FD 5
 RT 90
 FD 5
 LT 90
 FD 5
 LT 90
 RT 90
 FD 5
 LT 90
 FD 5
 LT 90
 FD 5
 RT 90
 FD 5
 RT 90
 FD 5
 LT 90
 FD 5
 LT 90
 FD 5
 RT 90
 LT 90
 FD 5
 LT 90
 FD 5
 RT 90
 FD 5
 RT 90
 FD 5
 LT 90
 RT 90
 LT 90
 FD 5
 LT 90
 RT 90
 FD 5
 LT 90
 FD 5
 LT 90
 FD 5
 RT 90
 FD 5
 RT 90
 LT 90
 FD 5
 RT 90
 FD 5
 RT 90
 FD 5
 LT 90
 FD 5
 LT 90
 FD 5
 RT 90
 FD 5
 RT 90
 FD 5
 LT 90
 RT 90
 FD 5
 RT 90
 FD 5
 LT 90
 FD 5
 LT 90
 FD 5
 RT 90
 LT 90
 RT 90
 LT 90
 RT 90
